X:1
T:The Bonnie Lass O' Bon Accord
L:1/16
M:4/4
I:linebreak $
K:D
V:1 treble 
V:1
 A2 | d2>e2f2>e2 d2D2F2A2 | dcdb afdf e6 A2 | d2>e2f2>e2 d2F2A2=c2 | BGBd cAce d6 :| (3abc' |$ %6
 d'2>f2g2a2 a2d2d'2c'b | a2d2 bagf e6 (3abc' | d'2>f2g2a2 a2d2d'2=c2 | BGBd cAce d6 | (3abc' |$ %11
 d'2>f2g2a2 a2d2d'2c'b | a2d2 bagf e6 f2 | DFAd f2>e2 d2F2A2=c2 | BGBd cAce d6 |] %15
